icons/svg/trello.svg

﻿<?xml version="1.0" encoding="utf-8"?>
<!DOCTYPE svg PUBLIC "-//W3C//DTD SVG 1.1//EN" "http://www.w3.org/Graphics/SVG/1.1/DTD/svg11.dtd">
<svg xmlns="http://www.w3.org/2000/svg" xmlns:xlink="http://www.w3.org/1999/xlink" version="1.1" baseProfile="full" width="24" height="24" viewBox="0 0 24.00 24.00" enable-background="new 0 0 24.00 24.00" xml:space="preserve">
	<path fill="#000000" fill-opacity="1" stroke-width="0.2" stroke-linejoin="round" d="M 4,3L 20,3C 20.5523,3 21,3.44772 21,4L 21,20C 21,20.5523 20.5523,21 20,21L 4,21C 3.44771,21 3,20.5523 3,20L 3,4C 3,3.44772 3.44771,3 4,3 Z M 5.5,5C 5.22386,5 5,5.22386 5,5.5L 5,17.5C 5,17.7761 5.22386,18 5.5,18L 10.5,18C 10.7761,18 11,17.7761 11,17.5L 11,5.5C 11,5.22386 10.7761,5 10.5,5L 5.5,5 Z M 13.5,5C 13.2239,5 13,5.22386 13,5.5L 13,11.5C 13,11.7762 13.2238,12 13.5,12L 18.5,12C 18.7761,12 19,11.7762 19,11.5L 19,5.5C 19,5.22386 18.7761,5 18.5,5L 13.5,5 Z "/>
</svg>

<svg xmlns="http://www.w3.org/2000/svg" version="1.1" baseProfile="full" width="24" height="24" viewBox="0 0 24.00 24.00" xml:space="preserve"><path fill="#000" fill-opacity="1" stroke-width=".2" stroke-linejoin="round" d="M4 3h16c.552 0 1 .448 1 1v16c0 .552-.448 1-1 1H4c-.552 0-1-.448-1-1V4c0-.552.448-1 1-1zm1.5 2c-.276 0-.5.224-.5.5v12c0 .276.224.5.5.5h5c.276 0 .5-.224.5-.5v-12c0-.276-.224-.5-.5-.5h-5zm8 0c-.276 0-.5.224-.5.5v6c0 .276.224.5.5.5h5c.276 0 .5-.224.5-.5v-6c0-.276-.224-.5-.5-.5h-5z"/></svg>
